img/content/twitter.svg

<svg width="14" height="14" viewBox="0 0 14 14" fill="none" xmlns="http://www.w3.org/2000/svg">
<path d="M13.4167 1.75001C12.8581 2.14403 12.2396 2.4454 11.585 2.64251C11.2337 2.23855 10.7668 1.95224 10.2474 1.8223C9.7281 1.69235 9.18137 1.72504 8.68122 1.91594C8.18106 2.10684 7.75159 2.44674 7.45091 2.88967C7.15022 3.33261 6.99283 3.8572 7 4.39251V4.97584C5.97487 5.00242 4.95908 4.77506 4.04309 4.31402C3.1271 3.85297 2.33935 3.17254 1.75 2.33334C1.75 2.33334 -0.583331 7.58334 4.66667 9.91667C3.46531 10.7322 2.03418 11.141 0.583336 11.0833C5.83333 14 12.25 11.0833 12.25 4.37501C12.2495 4.21252 12.2338 4.05044 12.2033 3.89084C12.7987 3.30371 13.2188 2.56242 13.4167 1.75001Z" fill="#101010"/>
</svg>

<svg width="14" height="14" viewBox="0 0 14 14" xmlns="http://www.w3.org/2000/svg" fill="none"><path d="M13.417 1.75c-.559.394-1.177.695-1.832.893-.351-.404-.818-.69-1.338-.82-.519-.13-1.066-.097-1.566.094s-.93.531-1.23.974c-.301.443-.458.968-.451 1.503v.583c-1.025.027-2.041-.201-2.957-.662-.916-.461-1.704-1.141-2.293-1.981 0 0-2.333 5.25 2.917 7.583-1.201.816-2.632 1.224-4.083 1.167 5.25 2.917 11.667 0 11.667-6.708-.001-.162-.016-.325-.047-.484.595-.587 1.015-1.328 1.213-2.141z" fill="#101010"/></svg>
